<?xml version="1.0" encoding="UTF-8"?>
<map version="1.10" tiledversion="1.12.1" orientation="orthogonal" renderorder="left-down" width="30" height="30" tilewidth="16" tileheight="16" infinite="0" nextlayerid="3" nextobjectid="8">
 <tileset firstgid="1" source="test_tileset.tsx"/>
 <layer id="1" name="Tile Layer 1" width="30" height="30">
  <data encoding="csv">
0,0,0,0,0,0,0,0,0,0,0,0,0,11,11,11,11,11,0,0,0,0,0,0,0,0,0,0,0,0,
0,0,0,0,0,0,0,0,0,0,0,0,0,1,1,1,1,11,0,0,0,0,0,0,0,0,0,0,0,0,
0,0,0,0,0,0,0,0,0,0,0,0,0,1,1,1,1,11,0,0,0,0,0,0,0,0,0,0,0,0,
0,0,0,0,0,0,0,0,0,0,0,0,0,11,1,1,1,11,0,0,0,0,0,0,0,0,0,0,0,0,
0,0,0,0,0,0,0,0,0,0,0,0,0,11,1,1,1,11,0,0,0,0,0,0,0,0,0,0,0,0,
0,0,0,0,0,0,0,0,0,0,0,0,0,11,1,1,1,11,0,0,0,0,0,0,0,0,0,0,0,0,
0,0,0,0,0,0,0,0,0,0,0,0,0,11,1,1,1,11,0,0,0,0,0,0,0,0,0,0,0,0,
0,0,0,0,0,0,0,0,0,0,0,0,0,11,1,1,1,11,0,0,0,0,0,0,0,0,0,0,0,0,
0,0,0,0,0,0,0,0,0,0,0,0,0,11,1,1,1,11,0,0,0,0,0,0,0,0,0,0,0,0,
0,0,0,0,0,0,0,0,0,0,0,0,0,11,1,1,1,11,0,0,0,0,0,0,0,0,0,0,0,0,
0,0,0,0,0,0,0,0,0,0,0,0,0,11,1,1,1,11,0,0,0,0,0,0,0,0,0,0,0,0,
0,0,0,0,0,0,0,0,0,0,0,0,0,11,1,1,1,11,0,0,0,0,0,0,0,0,0,0,0,0,
0,0,0,0,0,0,0,0,0,0,0,0,0,11,1,1,1,11,0,0,0,0,0,0,0,0,0,0,0,0,
0,0,0,0,0,0,0,0,0,0,0,0,0,11,1,1,1,11,0,0,0,0,0,0,0,0,0,0,0,0,
0,0,0,0,0,0,0,0,0,0,0,0,0,1,1,1,1,11,0,0,0,0,0,0,0,0,0,0,0,0,
0,0,0,0,0,0,0,0,0,0,0,0,0,1,1,1,1,11,0,0,0,0,0,0,0,0,0,0,0,0,
0,0,0,0,0,0,0,0,0,0,0,0,0,11,1,1,1,11,0,0,0,0,0,0,0,0,0,0,0,0,
0,0,0,0,0,0,0,0,0,0,0,0,0,11,1,1,1,11,0,0,0,0,0,0,0,0,0,0,0,0,
0,0,0,0,0,0,0,0,0,0,0,0,0,11,1,1,1,11,0,0,0,0,0,0,0,0,0,0,0,0,
0,0,0,0,0,0,0,0,0,0,0,0,0,11,1,1,1,11,0,0,0,0,0,0,0,0,0,0,0,0,
0,0,0,0,0,0,0,0,0,0,0,0,0,11,1,1,1,11,0,0,0,0,0,0,0,0,0,0,0,0,
0,0,0,0,0,0,0,0,0,0,0,0,0,11,1,1,1,11,0,0,0,0,0,0,0,0,0,0,0,0,
0,0,0,0,0,0,0,0,0,0,0,0,0,11,1,1,1,11,0,0,0,0,0,0,0,0,0,0,0,0,
0,0,0,0,0,0,0,0,0,0,0,0,0,11,1,1,1,11,0,0,0,0,0,0,0,0,0,0,0,0,
0,0,0,0,0,0,0,0,0,0,0,0,0,11,1,1,1,11,0,0,0,0,0,0,0,0,0,0,0,0,
0,0,0,0,0,0,0,0,0,0,0,0,0,11,1,1,1,11,0,0,0,0,0,0,0,0,0,0,0,0,
0,0,0,0,0,0,0,0,0,0,0,0,0,11,1,1,1,11,0,0,0,0,0,0,0,0,0,0,0,0,
0,0,0,0,0,0,0,0,0,0,0,0,0,11,1,1,1,11,0,0,0,0,0,0,0,0,0,0,0,0,
0,0,0,0,0,0,0,0,0,0,0,0,0,11,1,1,1,11,0,0,0,0,0,0,0,0,0,0,0,0,
0,0,0,0,0,0,0,0,0,0,0,0,0,11,11,11,11,11,0,0,0,0,0,0,0,0,0,0,0,0
</data>
 </layer>
 <objectgroup id="2" name="Object Layer 1">
  <object id="1" x="207.764" y="228.626" width="17.7185" height="21.7195">
   <properties>
    <property name="collider" type="bool" value="true"/>
    <property name="stage_change_name" value="Pop"/>
    <property name="stage_push" type="bool" value="true"/>
   </properties>
  </object>
  <object id="2" x="206.049" y="21.1479" width="17.7185" height="21.7195">
   <properties>
    <property name="collider" type="bool" value="true"/>
    <property name="stage_change_name" value="KitchenState"/>
    <property name="stage_push" type="bool" value="true"/>
   </properties>
  </object>
  <object id="3" name="wall" x="272.395" y="1.69856" width="18.2003" height="475.574">
   <properties>
    <property name="collider" type="bool" value="true"/>
    <property name="wall" type="bool" value="true"/>
   </properties>
  </object>
  <object id="4" name="wall" x="205.808" y="54.8541" width="17.1469" height="168.644">
   <properties>
    <property name="collider" type="bool" value="true"/>
    <property name="wall" type="bool" value="true"/>
   </properties>
  </object>
  <object id="5" name="wall" x="208.621" y="254.044" width="14.8606" height="224.657">
   <properties>
    <property name="collider" type="bool" value="true"/>
    <property name="wall" type="bool" value="true"/>
   </properties>
  </object>
  <object id="6" name="wall" x="206.906" y="0.841134" width="63.4436" height="14.3215">
   <properties>
    <property name="collider" type="bool" value="true"/>
    <property name="wall" type="bool" value="true"/>
   </properties>
  </object>
  <object id="7" name="wall" x="207.192" y="463.237" width="63.4436" height="14.3215">
   <properties>
    <property name="collider" type="bool" value="true"/>
    <property name="wall" type="bool" value="true"/>
   </properties>
  </object>
 </objectgroup>
</map>
