<?xml version="1.0" encoding="UTF-8"?>
<map version="1.10" tiledversion="1.12.1" orientation="orthogonal" renderorder="left-down" width="30" height="30" tilewidth="16" tileheight="16" infinite="0" nextlayerid="2" nextobjectid="1">
 <tileset firstgid="1" source="kitchen_tileset.tsx"/>
 <tileset firstgid="4081" source="test_tileset.tsx"/>
 <layer id="1" name="Tile Layer 1" width="30" height="30">
  <data encoding="csv">
0,0,0,0,0,0,0,0,0,0,0,0,0,0,0,0,0,0,0,0,0,0,0,0,0,0,0,0,0,0,
0,0,0,0,0,0,0,0,0,0,0,0,0,0,0,0,0,0,0,0,0,0,0,0,0,0,0,0,0,0,
0,0,0,0,0,0,0,0,0,0,0,0,0,0,0,0,0,0,0,0,0,0,0,0,0,0,0,0,0,0,
0,0,0,0,0,0,0,0,0,0,0,0,0,0,0,0,0,0,0,0,0,0,0,0,0,0,0,0,0,0,
0,0,0,0,0,0,0,0,0,0,0,0,0,0,0,0,0,0,0,0,0,0,0,0,0,0,0,0,0,0,
0,0,0,0,0,0,0,0,0,0,0,0,0,0,0,0,0,0,0,0,0,0,0,0,0,0,0,0,0,0,
0,0,0,0,0,0,0,0,0,0,0,0,0,0,0,0,0,0,0,0,0,0,0,0,0,0,0,0,0,0,
0,0,0,0,0,0,0,0,0,0,0,0,0,0,0,0,0,0,0,0,0,0,0,0,0,0,0,0,0,0,
0,0,4091,4091,4091,4091,4091,4091,4091,4091,4091,4091,4091,4091,4091,4091,4091,4091,4091,4091,4091,4091,4091,4091,4091,4091,0,0,0,0,
0,0,4091,92,93,4081,4081,4081,95,96,4081,4081,852,853,854,855,856,4081,4081,4081,4081,4081,4081,4081,4081,4091,0,0,0,0,
0,0,4091,177,178,4081,4081,4081,180,181,4081,4081,937,938,939,940,941,4081,4081,4081,4081,4081,4081,4081,4081,4091,0,0,0,0,
0,0,4091,262,263,4081,4081,4081,4081,4081,4081,4081,4081,4081,4081,4081,4081,4081,4081,4081,4081,4081,4081,4081,4081,4081,0,0,0,0,
0,0,4091,347,348,4081,4081,4081,4081,4081,4081,4081,4081,4081,4081,4081,4081,4081,4081,4081,4081,4081,4081,4081,4081,4081,0,0,0,0,
0,0,4091,4081,4081,4081,4081,4081,4081,4081,4081,87,4081,87,4081,4081,4081,4081,4081,4081,4081,4081,4081,4081,4081,4091,0,0,0,0,
0,0,4091,4081,4081,4081,4081,4081,4081,4081,4081,172,4081,172,4081,4081,4081,4081,4081,4081,4081,4081,4081,4081,4081,4091,0,0,0,0,
0,0,4091,4081,4081,4081,4081,4081,4081,4081,88,342,343,344,345,90,4081,4081,4081,4081,4081,4081,4081,4081,4081,4091,0,0,0,0,
0,0,4091,4081,4081,4081,4081,4081,4081,4081,173,89,428,89,430,175,4081,4081,4081,4081,4081,4081,4081,4081,4081,4091,0,0,0,0,
0,0,4091,4081,4081,4081,4081,4081,4081,4081,511,174,513,174,515,516,4081,4081,4081,4081,4081,4159,4081,4081,4081,4091,0,0,0,0,
0,0,4091,4091,4091,4091,4091,4091,4091,4091,4091,4091,4091,4091,4091,4091,4091,4091,4091,4091,4091,4091,4091,4091,4091,4091,0,0,0,0,
0,0,0,0,0,0,0,0,0,0,0,0,0,0,0,0,0,0,0,0,0,0,0,0,0,0,0,0,0,0,
0,0,0,0,0,0,0,0,0,0,0,0,0,0,0,0,0,0,0,0,0,0,0,0,0,0,0,0,0,0,
0,0,0,0,0,0,0,0,0,0,0,0,0,0,0,0,0,0,0,0,0,0,0,0,0,0,0,0,0,0,
0,0,0,0,0,0,0,0,0,0,0,0,0,0,0,0,0,0,0,0,0,0,0,0,0,0,0,0,0,0,
0,0,0,0,0,0,0,0,0,0,0,0,0,0,0,0,0,0,0,0,0,0,0,0,0,0,0,0,0,0,
0,0,0,0,0,0,0,0,0,0,0,0,0,0,0,0,0,0,0,0,0,0,0,0,0,0,0,0,0,0,
0,0,0,0,0,0,0,0,0,0,0,0,0,0,0,0,0,0,0,0,0,0,0,0,0,0,0,0,0,0,
0,0,0,0,0,0,0,0,0,0,0,0,0,0,0,0,0,0,0,0,0,0,0,0,0,0,0,0,0,0,
0,0,0,0,0,0,0,0,0,0,0,0,0,0,0,0,0,0,0,0,0,0,0,0,0,0,0,0,0,0,
0,0,0,0,0,0,0,0,0,0,0,0,0,0,0,0,0,0,0,0,0,0,0,0,0,0,0,0,0,0,
0,0,0,0,0,0,0,0,0,0,0,0,0,0,0,0,0,0,0,0,0,0,0,0,0,0,0,0,0,0
</data>
 </layer>
</map>
