<?xml version="1.0" encoding="UTF-8"?>
<map version="1.10" tiledversion="1.12.1" orientation="orthogonal" renderorder="left-down" width="30" height="30" tilewidth="16" tileheight="16" infinite="0" nextlayerid="2" nextobjectid="1">
 <tileset firstgid="1" source="test_tileset.tsx"/>
 <layer id="1" name="Tile Layer 1" width="30" height="30">
  <data encoding="csv">
0,0,0,0,0,0,0,0,0,0,0,0,0,0,0,0,0,0,0,0,0,0,0,0,0,0,0,0,0,0,
0,0,0,0,0,0,0,0,0,0,0,0,0,0,0,0,0,0,0,0,0,0,0,0,0,0,0,0,0,0,
0,0,0,0,0,0,0,0,0,0,0,0,0,0,0,0,0,0,0,0,0,0,0,0,0,0,0,0,0,0,
0,0,0,0,0,0,0,0,0,0,0,0,0,0,0,0,0,0,0,0,0,0,0,0,0,0,0,0,0,0,
0,0,0,0,0,0,0,0,0,0,0,0,0,0,0,0,0,0,0,0,0,0,0,0,0,0,0,0,0,0,
11,11,11,11,11,11,11,11,11,11,11,11,11,11,11,11,11,11,1,1,11,11,11,11,11,11,11,11,11,0,
11,24,24,1,1,24,24,24,24,24,1,1,1,1,2,1,1,1,1,1,1,1,79,1,1,1,1,1,11,0,
11,24,24,1,1,24,24,24,24,24,1,1,1,1,2,1,1,1,1,1,1,1,1,1,1,1,1,1,11,0,
11,24,24,1,1,1,1,24,24,1,1,1,1,1,2,1,1,1,1,1,1,1,1,1,1,1,1,1,1,0,
11,1,1,24,24,1,1,24,24,1,1,1,1,1,2,1,1,1,1,1,1,1,1,1,1,1,1,1,1,0,
11,1,1,24,24,1,1,1,1,1,1,1,1,1,2,1,1,1,1,1,1,1,1,1,1,1,1,1,11,0,
11,1,1,1,1,1,1,1,1,1,1,1,2,14,14,14,14,14,14,1,1,1,1,1,1,1,1,1,11,0,
11,1,1,1,1,1,1,2,2,2,2,2,2,14,14,14,14,14,14,1,1,1,14,14,1,1,1,1,11,0,
11,1,1,1,1,1,1,1,1,1,1,1,1,1,1,1,1,1,1,1,1,1,14,14,1,1,1,1,11,0,
11,1,1,1,1,1,1,1,1,1,1,1,1,1,1,1,1,1,1,1,1,1,1,1,14,14,4,1,11,0,
11,24,24,1,1,1,1,1,14,14,14,1,1,1,1,1,1,1,1,1,1,1,1,1,4,4,4,1,11,0,
11,75,24,1,1,1,1,1,14,14,14,1,1,1,1,1,1,1,1,1,1,1,1,1,4,4,4,1,11,0,
11,24,24,1,1,1,1,1,14,14,14,1,1,1,1,1,1,1,1,1,1,1,1,1,4,4,4,1,11,0,
11,24,24,1,1,1,1,1,14,14,14,1,1,1,1,1,1,1,1,1,1,1,1,1,4,4,4,1,11,0,
11,1,1,1,1,1,1,1,1,1,1,1,1,1,1,1,1,1,1,1,1,1,1,1,4,4,4,1,11,0,
11,1,1,24,24,1,1,1,1,1,1,1,1,1,1,1,1,1,1,1,4,4,1,1,1,1,1,1,11,0,
11,1,1,24,24,1,1,1,1,1,1,1,1,1,1,1,1,1,1,1,4,4,1,1,1,1,1,1,11,0,
11,24,24,1,1,1,1,1,1,1,1,1,1,1,1,1,1,1,1,1,1,1,1,1,1,1,1,1,11,0,
11,24,24,1,1,1,1,1,1,1,1,1,1,1,1,1,1,1,1,1,1,1,1,1,1,1,1,1,11,0,
11,11,11,11,11,11,11,11,11,11,11,11,11,11,11,11,11,11,11,11,11,11,11,11,11,11,11,11,11,0,
0,0,0,0,0,0,0,0,0,0,0,0,0,0,0,0,0,0,0,0,0,0,0,0,0,0,0,0,0,0,
0,0,0,0,0,0,0,0,0,0,0,0,0,0,0,0,0,0,0,0,0,0,0,0,0,0,0,0,0,0,
0,0,0,0,0,0,0,0,0,0,0,0,0,0,0,0,0,0,0,0,0,0,0,0,0,0,0,0,0,0,
0,0,0,0,0,0,0,0,0,0,0,0,0,0,0,0,0,0,0,0,0,0,0,0,0,0,0,0,0,0,
0,0,0,0,0,0,0,0,0,0,0,0,0,0,0,0,0,0,0,0,0,0,0,0,0,0,0,0,0,0
</data>
 </layer>
</map>
